client/public/img/game/fall/obstacles/stump.svg

<?xml version="1.0" encoding="UTF-8" standalone="no"?>
<!-- Created with Inkscape (http://www.inkscape.org/) -->

<svg
   width="38.969288mm"
   height="38.969288mm"
   viewBox="0 0 38.969288 38.969288"
   version="1.1"
   id="svg1"
   xmlns="http://www.w3.org/2000/svg"
   xmlns:svg="http://www.w3.org/2000/svg">
  <defs
     id="defs1" />
  <g
     id="layer1"
     transform="translate(-84.931244,-128.85207)">
    <g
       id="layer1-8"
       transform="matrix(1.3260431,0,0,1.3260431,24.20564,126.92436)"
       style="stroke-width:0.997642;stroke-dasharray:none">
      <path
         style="fill:#6d4a2c;fill-opacity:1;stroke:#2b1e12;stroke-width:0.842599;stroke-linejoin:round;stroke-dasharray:none;stroke-opacity:1"
         id="path1620"
         d="M 14.949099,9.1020719 12.735023,11.524231 11.489719,14.560379 8.2114063,14.707517 5.1839617,15.973835 2.7618029,13.75976 -0.27434587,12.514455 -0.42148325,9.2361427 -1.6878013,6.2086981 0.52627384,3.7865393 1.7715784,0.75039054 5.0498909,0.60325315 8.0773355,-0.66306492 10.499494,1.5510102 13.535643,2.7963148 13.68278,6.0746273 Z"
         transform="matrix(-0.29308171,-1.6314927,1.6314927,-0.29308171,49.942034,29.209065)" />
      <path
         style="fill:none;fill-opacity:1;stroke:#48321e;stroke-width:0.825538;stroke-linejoin:round;stroke-dasharray:none;stroke-opacity:1"
         id="path1620-1"
         d="M 14.949099,9.1020719 12.735023,11.524231 11.489719,14.560379 8.2114063,14.707517 5.1839617,15.973835 2.7618029,13.75976 -0.27434587,12.514455 -0.42148325,9.2361427 -1.6878013,6.2086981 0.52627384,3.7865393 1.7715784,0.75039054 5.0498909,0.60325315 8.0773355,-0.66306492 10.499494,1.5510102 13.535643,2.7963148 13.68278,6.0746273 Z"
         transform="matrix(-0.21367054,-1.189436,1.189436,-0.21367054,52.799601,25.670019)" />
      <path
         style="fill:none;fill-opacity:1;stroke:#48321e;stroke-width:1.3334;stroke-linejoin:round;stroke-dasharray:none;stroke-opacity:1"
         id="path1620-1-1"
         d="M 14.949099,9.1020719 12.735023,11.524231 11.489719,14.560379 8.2114063,14.707517 5.1839617,15.973835 2.7618029,13.75976 -0.27434587,12.514455 -0.42148325,9.2361427 -1.6878013,6.2086981 0.52627384,3.7865393 1.7715784,0.75039054 5.0498909,0.60325315 8.0773355,-0.66306492 10.499494,1.5510102 13.535643,2.7963148 13.68278,6.0746273 Z"
         transform="matrix(-0.1322881,-0.73640576,0.73640576,-0.1322881,55.728103,22.043121)" />
      <path
         style="fill:#48321e;fill-opacity:1;stroke:#48321e;stroke-width:3.50677;stroke-linejoin:round;stroke-dasharray:none;stroke-opacity:1"
         id="path1620-1-1-7"
         d="M 14.949099,9.1020719 12.735023,11.524231 11.489719,14.560379 8.2114063,14.707517 5.1839617,15.973835 2.7618029,13.75976 -0.27434587,12.514455 -0.42148325,9.2361427 -1.6878013,6.2086981 0.52627384,3.7865393 1.7715784,0.75039054 5.0498909,0.60325315 8.0773355,-0.66306492 10.499494,1.5510102 13.535643,2.7963148 13.68278,6.0746273 Z"
         transform="matrix(-0.05030079,-0.28000849,0.28000849,-0.05030079,58.678371,18.389267)" />
    </g>
  </g>
</svg>

<svg xmlns="http://www.w3.org/2000/svg" width="147.285" height="147.285" viewBox="0 0 38.969 38.969"><g style="stroke-width:.997642;stroke-dasharray:none"><path d="m14.95 9.102-2.215 2.422-1.245 3.036-3.279.148-3.027 1.266-2.422-2.214-3.036-1.246-.147-3.278-1.267-3.027L.526 3.787 1.772.75 5.05.603 8.077-.663 10.5 1.55l3.037 1.245.147 3.279Z" style="fill:#6d4a2c;fill-opacity:1;stroke:#2b1e12;stroke-width:.842599;stroke-linejoin:round;stroke-dasharray:none;stroke-opacity:1" transform="rotate(-100.184 18.141 16.103)scale(2.19806)"/><path d="m14.95 9.102-2.215 2.422-1.245 3.036-3.279.148-3.027 1.266-2.422-2.214-3.036-1.246-.147-3.278-1.267-3.027L.526 3.787 1.772.75 5.05.603 8.077-.663 10.5 1.55l3.037 1.245.147 3.279Z" style="fill:none;fill-opacity:1;stroke:#48321e;stroke-width:.825538;stroke-linejoin:round;stroke-dasharray:none;stroke-opacity:1" transform="rotate(-100.184 18.073 12.171)scale(1.60249)"/><path d="m14.95 9.102-2.215 2.422-1.245 3.036-3.279.148-3.027 1.266-2.422-2.214-3.036-1.246-.147-3.278-1.267-3.027L.526 3.787 1.772.75 5.05.603 8.077-.663 10.5 1.55l3.037 1.245.147 3.279Z" style="fill:none;fill-opacity:1;stroke:#48321e;stroke-width:1.3334;stroke-linejoin:round;stroke-dasharray:none;stroke-opacity:1" transform="scale(-.99214)rotate(79.816 9.813 -21.697)"/><path d="m14.95 9.102-2.215 2.422-1.245 3.036-3.279.148-3.027 1.266-2.422-2.214-3.036-1.246-.147-3.278-1.267-3.027L.526 3.787 1.772.75 5.05.603 8.077-.663 10.5 1.55l3.037 1.245.147 3.279Z" style="fill:#48321e;fill-opacity:1;stroke:#48321e;stroke-width:3.50677;stroke-linejoin:round;stroke-dasharray:none;stroke-opacity:1" transform="matrix(-.0667 -.3713 .3713 -.0667 17.084 22.457)"/></g></svg>
